X: 2
T: Pollonesse #2
M: 3/4
L: 1/16
K: D
Q:110
|:dcdA FDFAd4|edcdB4c4|d2dfe4dcBA|d2df edcB ABcA|
dcdA FDFAd4|edcdB4c4|d2dfe4d4|cece d4D4:|
|:DFAF DFAF DFAF|DGBG DGBG DGBG|Acec Acec Acec|d2df edcB ABcA:|

